X: 7757
T: Columba Ward's
R: reel
M: 4/4
K: Gmajor
BGBd g2 de|BGDG FAAc|BGBd gdec|dBcA BGGc|
BGBd g2 dc|BGDG FAAB|GBAc Bd^ce|dBcA BGGF||
g2 Gg BgGf|g2 Bd cBaf|g2 Gg BgdG|FAdc BGGf|
g2 Gg BgGf|g2 Bd cdAB|GBAc Bd^ce|dBcA BGGc||

